X: 1
T: Paddy Fahy's
M: 4/4
L: 1/8
R: reel
K: Ador
gfea gedB | G2 BGdG Bd | gfea gedB | G2 (3Bcd eAAf |
gfea gedB | G2 BGdG Bd | bagb a2 (3gfe|1  d2 (3Bcd eA A2 :|2 d2 (3Bcd eAAB |]
c2 AEcA FA | GdBG dGBd | c2 AEcA FA | GedB eAAB |
c2 AEcA FA | GdBG dGBd | bagb a2 (3gfe |1 d2 (3Bcd eAAB :|2 d2 (3Bcd eA A2 |]
